!!!OTL: Steh ich in finstrer Mitternacht (2-8), S. 18
!!!id: K1102
**kern
*clefG2
*k[b-]
*F:
{8c
8f
8g
=1
4.a
8b-
8g
8a
=2
4f}
8r
=3
{8f
8a
8b-
=4
4.cc
8dd
8b-
8cc
=5
4a}
8r
=6
{8f
8f
8dd
=7
4dd
8b-
8dd
8ff
8dd
=8
4cc
8a}
=9
{8cc
8dd
8cc
=10
4b-
8g
8g
8.cc
16b-
=11
4a}
8r
=12
{8f
8f
8dd
=13
4dd
8b-
8dd
8ff
8dd
=14
4cc
8a}
=15
{8cc
8dd
8cc
=16
4.ee
8dd
8cc
8e
=17
4.f}
==
*-
!!!minrhy: 16
!!!meters: 3/4 ]  ZZ[6
!!!cut: Steh ich in finstrer Mitternacht (2-8), S. 18
!!!reg: Luxemburg
!!!trd: KINTZELE, Guillaume: An der Ucht, Bd. 2, Luxemburg 1927
!!!rhy1: X_X_X_  X__.X_X_X_  X__0   (x2)
!!!rhy2: X_X_X_  X__.X_X_X_  X__0
!!!key: K1102  16  F 3/4 ]  ZZ[6
!!!mod: HEPTATONIK IONISCH]  AMBITUS[11
!!!kad: 133331
!!!akz: 31_53_65_43_65_71_
!!!fot: 'a__as'b__c__b__d__
!!!for: 'a__a__b__c__b__av_
!!!fok: '^a_^a_^a_\__^a_^d_
!! PHRAS[AUFTAKTIG]
!!!fkt: Soldatenlied, Trennung, Treue
!!!bem: in der Quelle mit einer 2. Stimme versehen
!! KINTZELE
!! PR[26] 2K[5] 2G[10] 3K[3] 3G[7] 4A[7] 4Ü[0] 5A[0] 6K[0] 6G[0]
!! 7K[0] 7G[0] 8A[0] MEHR[0] SI[31] ABS[61] SR[15] SP[16]
!! ST[12] 2k[10] 2g[30] 3k[3] 3g[0] 4d[0] 4ü[0] 5d[0] 6k[0] 6g[0]
!! 7k[0] 7g[0] 8d[0] mehr[0] si[43] dm[-12] sr[39] sp[3]
!! 1F[12] 2F[70] 3F[12] 4F[0] LF[0] 2P[6] 3P[0] 4P[0] TRI[0] DF[4] AB[66]
!! TF[0] U3K[0] U3[0] U4[0] U4Ü[0] U5[2] U6K[0] U6[0] U7K[0] U7[2]
!! N1[10] N2K[0] N2[16] N3K[0] N3[29] N4[13] N4Ü[0] N5[26] N6K[0] N6[3]
!!!n7k: 0] N7[0] O1[0] O2K[0] O2[0] O3K[0] O3[0] HÖ[0
